X: 22319
T: La Sansonette
R: reel
M: 4/4
K: Gmajor
B2 _B=B ABGB|FAGF EGFE|EFGA (3 BcB AB|d2 e2 B2 (3BBB|
B2 _B=B ABGB|FAGF EGFE|EFGA (3 BcB AG|FGAB EB (3BBB:|
B2 GB cGBc|B2 GB cGBc|F3 B cGBc|F3 B cGBc|
GB GB cGBc|GBGB cGBc|FcBA GAFG|EFGB EB (3BBB:|

